X: 0
T: Ah! Lord God, The World's Creator
Z: 17th Century Melody by J. G. Ebeling
Z: Copyright © 2004 by Douglas D. Anderson
Z: Released To The Public Domain
L: 1/4
M: 4/4
Q: 1/4=120
V: P1 name="Staff"
%%MIDI program 1 19
K: G
[V: P1]  G A | B3/ A | B d e2 | d4 | d e c2 | c d B2 | B d c B | A2 G2 | d2 c2 | B3 A | G F E2 | D4 | d e c2 | c d B2 | B A c B | A2 G|]
w: Ah! Lord God, the world's Cre- a tor, King of all, Great or small, Earth Re- gen er a tor: Art thou crad- led, art thou cry- ing, Swath'd and bound, On the Ground, In a sta- ble ly- ing?

